assets/images/afrikons/bag-outline.svg

<svg viewBox="0 0 50 50" xmlns="http://www.w3.org/2000/svg"><g fill="none"><path d="m0 0h50v50h-50z"/><path d="m38.38 11.84h-9.53a1.42 1.42 0 0 1 -1.07.5h-5.56a1.42 1.42 0 0 1 -1.07-.5h-9.53a1.56 1.56 0 0 0 -1.56 1.56v31.13a1.56 1.56 0 0 0 1.56 1.56h2.26a2.57 2.57 0 0 1 4.45 0h13.34a2.57 2.57 0 0 1 4.45 0h2.26a1.56 1.56 0 0 0 1.56-1.56v-31.13a1.56 1.56 0 0 0 -1.56-1.56z"/><path d="m22.22 9.51h5.56a1.44 1.44 0 0 1 .9.33h6.32v-5.56a2.3 2.3 0 0 0 -2.3-2.28h-15.41a2.29 2.29 0 0 0 -2.29 2.28v5.56h6.31a1.44 1.44 0 0 1 .91-.33z"/></g><path d="m38.38 9.84h-1.38v-5.56a4.28 4.28 0 0 0 -4.3-4.28h-15.41a4.28 4.28 0 0 0 -4.29 4.28v5.56h-1.4a3.56 3.56 0 0 0 -3.53 3.56v31.13a3.55 3.55 0 0 0 3.55 3.55h2a2.58 2.58 0 0 0 5 0h12.78a2.58 2.58 0 0 0 5 0h2a3.55 3.55 0 0 0 3.55-3.55v-31.13a3.56 3.56 0 0 0 -3.57-3.56zm-23.38-5.56a2.29 2.29 0 0 1 2.29-2.28h15.41a2.3 2.3 0 0 1 2.3 2.28v5.56h-6.32a1.44 1.44 0 0 0 -.9-.33h-5.56a1.44 1.44 0 0 0 -.9.33h-6.32zm24.94 40.25a1.56 1.56 0 0 1 -1.56 1.56h-2.26a2.57 2.57 0 0 0 -4.45 0h-13.34a2.57 2.57 0 0 0 -4.45 0h-2.26a1.56 1.56 0 0 1 -1.56-1.56v-31.13a1.56 1.56 0 0 1 1.56-1.56h9.53a1.42 1.42 0 0 0 1.07.5h5.56a1.42 1.42 0 0 0 1.07-.5h9.53a1.56 1.56 0 0 1 1.56 1.56z" fill="#212121"/></svg>

<svg xmlns="http://www.w3.org/2000/svg" viewBox="0 0 50 50"><defs><style>.cls-1{fill:none;}.cls-2{fill:#212121;}</style></defs><title>bag-outline</title><g id="Layer_2" data-name="Layer 2"><g id="Layer_1-2" data-name="Layer 1"><rect class="cls-1" width="50" height="50"/><path class="cls-1" d="M38.38,11.84H28.85a1.42,1.42,0,0,1-1.07.5H22.22a1.42,1.42,0,0,1-1.07-.5H11.62a1.56,1.56,0,0,0-1.56,1.56V44.53a1.56,1.56,0,0,0,1.56,1.56h2.26a2.57,2.57,0,0,1,4.45,0H31.67a2.57,2.57,0,0,1,4.45,0h2.26a1.56,1.56,0,0,0,1.56-1.56V13.4A1.56,1.56,0,0,0,38.38,11.84Z"/><path class="cls-1" d="M22.22,9.51h5.56a1.44,1.44,0,0,1,.9.33H35V4.28A2.3,2.3,0,0,0,32.7,2H17.29A2.29,2.29,0,0,0,15,4.28V9.84h6.31A1.44,1.44,0,0,1,22.22,9.51Z"/><path class="cls-2" d="M38.38,9.84H37V4.28A4.28,4.28,0,0,0,32.7,0H17.29A4.28,4.28,0,0,0,13,4.28V9.84h-1.4A3.56,3.56,0,0,0,8.07,13.4V44.53a3.55,3.55,0,0,0,3.55,3.55h2a2.58,2.58,0,0,0,5,0H31.4a2.58,2.58,0,0,0,5,0h2a3.55,3.55,0,0,0,3.55-3.55V13.4A3.56,3.56,0,0,0,38.38,9.84ZM15,4.28A2.29,2.29,0,0,1,17.29,2H32.7A2.3,2.3,0,0,1,35,4.28V9.84H28.68a1.44,1.44,0,0,0-.9-.33H22.22a1.44,1.44,0,0,0-.9.33H15ZM39.94,44.53a1.56,1.56,0,0,1-1.56,1.56H36.12a2.57,2.57,0,0,0-4.45,0H18.33a2.57,2.57,0,0,0-4.45,0H11.62a1.56,1.56,0,0,1-1.56-1.56V13.4a1.56,1.56,0,0,1,1.56-1.56h9.53a1.42,1.42,0,0,0,1.07.5h5.56a1.42,1.42,0,0,0,1.07-.5h9.53a1.56,1.56,0,0,1,1.56,1.56Z"/></g></g></svg>
